X: 1399
T: Dressed In Rags Without A Bob
B: australian traditional tunes wiki
M:4/4
L:1/8
R: March
Q: 1/4=90
K:D
V:1 
"D"d3/2z/ "A"c3/2z/"G" BA "D"AF/G/|AG/F/ "A7"EC "G"BA "D"AB/c/|
"D"d3/z/2 "A"c3/2z/ "G"BA "D"AF/G/|AG/F/ "A7"EC ED- "D"Dz:|
|:"D"AA BA AF FF/G/|AF/A/ BA"A7"E3E|
"D"FF DE/F/ "G"GGB2|"A7"A,C/E/ BA "D"D2D2:|
% abcbook-tune_id 6342d53a19f7b485de646e87


% abcbook-boost 0
% abcbook-tablature 
% abcbook-transpose 
% abcbook-lastupdated 1665324363164
% abcbook-soundfonts 
% abcbook-repeats 1
% NFF Book 2019
% Bush Traditions recording played by David Gittus & Julie Gittus

